!!!OTL: Der heimkehrende Soldat Husaren kommen aus dem Krieg, hurrah!
!!!ARE: Europa, Mitteleuropa, Deutschland (), Brandenburg
!!!YOR: 5, S. 160
!!    ????
!!!SCT: Q0103J
!!!YEM: Copyright 1995, estate of Helmut Schaffrath.
**kern
*ICvox
*Ivox
*M6/4
*k[f#]
*G:
{4d
=1
4d
4g
4g
4g
4b
4b
=2
4b
4dd
4dd
4dd
4cc
4a
=3
2g
2.r}
{4d
=4
4d
4g
4g
4g
4b
4b
=5
4b
4dd
4dd
4dd
4cc
4a
=6
2g
2.r}
{8g
8b
=7
4dd
4dd
4dd
4dd
4ee
4dd
=8
2cc
4b
2cc}
{4cc
=9
4b
4b
4b
4dd
4cc
4b
=10
4a
4dd
4dd
4dd
4dd}
{4cc
=11
2b
4b
2a
4a
=12
2.g
2r}
==
!!!AGN: Ballade, Ehe, Betrug
!! Anhaengsel; letzte Zeile = Refrain.
!!!ONB: ESAC (Essen Associative Code) Database: BALLADE
!!!AMT: compound duple
!!!AIN: vox
!!!EED: Helmut Schaffrath
!!!EEV: 1.0
*-
